X: 37
T:Bonnie Kate
% Nottingham Music Database
S:Kerrs/Eric Foxley
M:4/4
L:1/4
K:D
d/2B/2|"D"A/2F/2d/2B/2 A/2B/2A/2F/2|"D"D/2F/2A/2F/2 "A7"EE/2B/2|\
"D"A/2F/2A/2d/2 "G"B/2G/2B/2d/2|
"A7"c/2A/2B/2c/2 "G"d/2c/2d/2B/2|"D"A/2F/2d/2B/2 A/2B/2A/2F/2|\
"D"D/2F/2A/2F/2 "A7"EE/2B/2|
"D"A/2F/2A/2d/2 "G"B/2G/2B/2d/2|"A7"c/2A/2B/2c/2 "A7"d/2e/2f/2g/2|\
"D"af/2d/2 f/2a/2f/2d/2|
"D"f/2a/2f/2d/2 "A"ee/2f/2|"Em"g/2f/2e/2f/2 "A7"g/2b/2a/2g/2|\
"D"f/2e/2d/2c/2 "A7"d/2e/2f/2g/2|
"D"af/2d/2 f/2a/2f/2d/2|"D"f/2a/2f/2d/2 "A"ee/2f/2|\
"Em"g/2f/2e/2f/2 "A7"g/2b/2a/2g/2|"A7"f/2e/2d/2c/2 "D"d||<end>
<start>
